outputs/icons/general/building_round.svg

<svg xmlns="http://www.w3.org/2000/svg" width="1200" height="1200" fill="none"><path fill="#000" d="M600 350V250c0-55.228-44.77-100-100-100H200c-55.228 0-100 44.772-100 100v787.5c0 6.905 5.597 12.5 12.5 12.5h975c6.905 0 12.5-5.595 12.5-12.5V450c0-55.228-44.77-100-100-100zM300 937.5c0 6.905-5.596 12.5-12.5 12.5h-75c-6.904 0-12.5-5.595-12.5-12.5v-75c0-6.905 5.596-12.5 12.5-12.5h75c6.904 0 12.5 5.595 12.5 12.5zm0-200c0 6.905-5.596 12.5-12.5 12.5h-75c-6.904 0-12.5-5.595-12.5-12.5v-75c0-6.905 5.596-12.5 12.5-12.5h75c6.904 0 12.5 5.595 12.5 12.5zm0-200c0 6.905-5.596 12.5-12.5 12.5h-75c-6.904 0-12.5-5.595-12.5-12.5v-75c0-6.904 5.596-12.5 12.5-12.5h75c6.904 0 12.5 5.596 12.5 12.5zm0-200c0 6.904-5.596 12.5-12.5 12.5h-75c-6.904 0-12.5-5.596-12.5-12.5v-75c0-6.904 5.596-12.5 12.5-12.5h75c6.904 0 12.5 5.596 12.5 12.5zm200 600c0 6.905-5.596 12.5-12.5 12.5h-75c-6.904 0-12.5-5.595-12.5-12.5v-75c0-6.905 5.596-12.5 12.5-12.5h75c6.904 0 12.5 5.595 12.5 12.5zm0-200c0 6.905-5.596 12.5-12.5 12.5h-75c-6.904 0-12.5-5.595-12.5-12.5v-75c0-6.905 5.596-12.5 12.5-12.5h75c6.904 0 12.5 5.595 12.5 12.5zm0-200c0 6.905-5.596 12.5-12.5 12.5h-75c-6.904 0-12.5-5.595-12.5-12.5v-75c0-6.904 5.596-12.5 12.5-12.5h75c6.904 0 12.5 5.596 12.5 12.5zm0-200c0 6.904-5.596 12.5-12.5 12.5h-75c-6.904 0-12.5-5.596-12.5-12.5v-75c0-6.904 5.596-12.5 12.5-12.5h75c6.904 0 12.5 5.596 12.5 12.5zM1000 950H600V850h87.5c6.905 0 12.5-5.595 12.5-12.5v-75c0-6.905-5.595-12.5-12.5-12.5H600V650h87.5c6.905 0 12.5-5.595 12.5-12.5v-75c0-6.905-5.595-12.5-12.5-12.5H600V450h400zM900 562.5c0-6.905-5.595-12.5-12.5-12.5h-75c-6.905 0-12.5 5.595-12.5 12.5v75c0 6.905 5.595 12.5 12.5 12.5h75c6.905 0 12.5-5.595 12.5-12.5zm0 200c0-6.905-5.595-12.5-12.5-12.5h-75c-6.905 0-12.5 5.595-12.5 12.5v75c0 6.905 5.595 12.5 12.5 12.5h75c6.905 0 12.5-5.595 12.5-12.5z"/></svg>

<svg width="1200" height="1200" viewBox="0 0 1200 1200" fill="none" xmlns="http://www.w3.org/2000/svg"><path d="M600 350V250C600 194.772 555.23 150 500 150H200C144.772 150 100 194.772 100 250V1037.5C100 1044.405 105.597 1050 112.5 1050H1087.5C1094.405 1050 1100 1044.405 1100 1037.5V450C1100 394.772 1055.23 350 1000 350H600ZM300 937.5C300 944.405 294.404 950 287.5 950H212.5C205.596 950 200 944.405 200 937.5V862.5C200 855.595 205.596 850 212.5 850H287.5C294.404 850 300 855.595 300 862.5V937.5ZM300 737.5C300 744.405 294.404 750 287.5 750H212.5C205.596 750 200 744.405 200 737.5V662.5C200 655.595 205.596 650 212.5 650H287.5C294.404 650 300 655.595 300 662.5V737.5ZM300 537.5C300 544.405 294.404 550 287.5 550H212.5C205.596 550 200 544.405 200 537.5V462.5C200 455.596 205.596 450 212.5 450H287.5C294.404 450 300 455.596 300 462.5V537.5ZM300 337.5C300 344.404 294.404 350 287.5 350H212.5C205.596 350 200 344.404 200 337.5V262.5C200 255.596 205.596 250 212.5 250H287.5C294.404 250 300 255.596 300 262.5V337.5ZM500 937.5C500 944.405 494.404 950 487.5 950H412.5C405.596 950 400 944.405 400 937.5V862.5C400 855.595 405.596 850 412.5 850H487.5C494.404 850 500 855.595 500 862.5V937.5ZM500 737.5C500 744.405 494.404 750 487.5 750H412.5C405.596 750 400 744.405 400 737.5V662.5C400 655.595 405.596 650 412.5 650H487.5C494.404 650 500 655.595 500 662.5V737.5ZM500 537.5C500 544.405 494.404 550 487.5 550H412.5C405.596 550 400 544.405 400 537.5V462.5C400 455.596 405.596 450 412.5 450H487.5C494.404 450 500 455.596 500 462.5V537.5ZM500 337.5C500 344.404 494.404 350 487.5 350H412.5C405.596 350 400 344.404 400 337.5V262.5C400 255.596 405.596 250 412.5 250H487.5C494.404 250 500 255.596 500 262.5V337.5ZM1000 950H600V850H687.5C694.405 850 700 844.405 700 837.5V762.5C700 755.595 694.405 750 687.5 750H600V650H687.5C694.405 650 700 644.405 700 637.5V562.5C700 555.595 694.405 550 687.5 550H600V450H1000V950ZM900 562.5C900 555.595 894.405 550 887.5 550H812.5C805.595 550 800 555.595 800 562.5V637.5C800 644.405 805.595 650 812.5 650H887.5C894.405 650 900 644.405 900 637.5V562.5ZM900 762.5C900 755.595 894.405 750 887.5 750H812.5C805.595 750 800 755.595 800 762.5V837.5C800 844.405 805.595 850 812.5 850H887.5C894.405 850 900 844.405 900 837.5V762.5Z" fill="#1D1E23"/></svg>
